icons/finance_dept.svg

<svg width="48" height="48" viewBox="0 0 48 48" fill="none" xmlns="http://www.w3.org/2000/svg">
<path fill-rule="evenodd" clip-rule="evenodd" d="M39 8H9C8.44771 8 8 8.44772 8 9V39C8 39.5523 8.44772 40 9 40H39C39.5523 40 40 39.5523 40 39V9C40 8.44771 39.5523 8 39 8ZM9 6C7.34315 6 6 7.34315 6 9V39C6 40.6569 7.34315 42 9 42H39C40.6569 42 42 40.6569 42 39V9C42 7.34315 40.6569 6 39 6H9Z" fill="black"/>
<path fill-rule="evenodd" clip-rule="evenodd" d="M17 10C15.8954 10 15 10.8954 15 12V36C15 37.1046 15.8954 38 17 38H31C32.1046 38 33 37.1046 33 36V12C33 10.8954 32.1046 10 31 10H17ZM31 12H17V21H31V12ZM21.2727 24.6364C21.2727 25.5401 20.5401 26.2727 19.6364 26.2727C18.7326 26.2727 18 25.5401 18 24.6364C18 23.7326 18.7326 23 19.6364 23C20.5401 23 21.2727 23.7326 21.2727 24.6364ZM24 26.2727C24.9037 26.2727 25.6364 25.5401 25.6364 24.6364C25.6364 23.7326 24.9037 23 24 23C23.0963 23 22.3636 23.7326 22.3636 24.6364C22.3636 25.5401 23.0963 26.2727 24 26.2727ZM30 24.6364C30 25.5401 29.2674 26.2727 28.3636 26.2727C27.4599 26.2727 26.7273 25.5401 26.7273 24.6364C26.7273 23.7326 27.4599 23 28.3636 23C29.2674 23 30 23.7326 30 24.6364ZM19.6364 30.6364C20.5401 30.6364 21.2727 29.9037 21.2727 29C21.2727 28.0963 20.5401 27.3636 19.6364 27.3636C18.7326 27.3636 18 28.0963 18 29C18 29.9037 18.7326 30.6364 19.6364 30.6364ZM25.6364 29C25.6364 29.9037 24.9037 30.6364 24 30.6364C23.0963 30.6364 22.3636 29.9037 22.3636 29C22.3636 28.0963 23.0963 27.3636 24 27.3636C24.9037 27.3636 25.6364 28.0963 25.6364 29ZM28.3636 30.6364C29.2674 30.6364 30 29.9037 30 29C30 28.0963 29.2674 27.3636 28.3636 27.3636C27.4599 27.3636 26.7273 28.0963 26.7273 29C26.7273 29.9037 27.4599 30.6364 28.3636 30.6364ZM30 33.3636C30 34.2674 29.2674 35 28.3636 35C27.4599 35 26.7273 34.2674 26.7273 33.3636C26.7273 32.4599 27.4599 31.7273 28.3636 31.7273C29.2674 31.7273 30 32.4599 30 33.3636ZM19.6364 31.7273C18.7326 31.7273 18 32.4599 18 33.3636C18 34.2674 18.7326 35 19.6364 35H24C24.9037 35 25.6364 34.2674 25.6364 33.3636C25.6364 32.4599 24.9037 31.7273 24 31.7273H19.6364Z" fill="black"/>
</svg>

<svg
  xmlns="http://www.w3.org/2000/svg"
  width="24"
  height="24"
  viewBox="0 0 24 24"
  fill="none"
  stroke="currentColor"
  stroke-width="2"
  stroke-linecap="round"
  stroke-linejoin="round"
>
  <path
    fill-rule="evenodd"
    d="M39 8H9a1 1 0 0 0-1 1v30a1 1 0 0 0 1 1h30a1 1 0 0 0 1-1V9a1 1 0 0 0-1-1M9 6a3 3 0 0 0-3 3v30a3 3 0 0 0 3 3h30a3 3 0 0 0 3-3V9a3 3 0 0 0-3-3z"
    clip-rule="evenodd"
  />
  <path
    fill-rule="evenodd"
    d="M17 10a2 2 0 0 0-2 2v24a2 2 0 0 0 2 2h14a2 2 0 0 0 2-2V12a2 2 0 0 0-2-2zm14 2H17v9h14zm-9.727 12.636a1.636 1.636 0 1 1-3.273 0 1.636 1.636 0 0 1 3.273 0M24 26.273A1.636 1.636 0 1 0 24 23a1.636 1.636 0 0 0 0 3.273m6-1.637a1.636 1.636 0 1 1-3.273 0 1.636 1.636 0 0 1 3.273 0m-10.364 6a1.636 1.636 0 1 0 0-3.272 1.636 1.636 0 0 0 0 3.272m6-1.636a1.636 1.636 0 1 1-3.273 0 1.636 1.636 0 0 1 3.273 0m2.728 1.636a1.636 1.636 0 1 0 0-3.272 1.636 1.636 0 0 0 0 3.272M30 33.364a1.636 1.636 0 1 1-3.273 0 1.636 1.636 0 0 1 3.273 0m-10.364-1.637a1.636 1.636 0 1 0 0 3.273H24a1.636 1.636 0 0 0 0-3.273z"
    clip-rule="evenodd"
  />
</svg>
